!!!OTL: Trinkreime.
!!!ARE: Europa, Mitteleuropa, Deutschland
!!!SCT: A0323
!!!TXL: @@GMH
!!!YEM: Copyright 1995, estate of Helmut Schaffrath.
**kern	**text
*M3/2	*
*met(C|3)	*
*k[b-]	*
*F:ion	*
=1	=1
!LO:TX:a:t=jon.	!
!LO:N:vis=1	!
2ryy	.
!LO:N:vis=1	!
2ryy	.
!LO:N:vis=1	!
{2cc	Er
=2	=2
!LO:N:vis=0	!
1cc	ſetʒt
!LO:N:vis=1	!
2cc	das
=3	=3
!LO:N:vis=0	!
1dd	gläs-
!LO:N:vis=1	!
2dd	-lein
=4	=4
!LO:N:vis=0	!
1cc	an
!LO:N:vis=1	!
2cc	den
=5	=5
!LO:N:vis=0	!
1a}	Mund,
!LO:N:vis=1	!
{2f	er
=6	=6
!LO:N:vis=0	!
1cc	trinkts
!LO:N:vis=1	!
2cc	wol
=7	=7
!LO:N:vis=0	!
1dd	aus
!LO:N:vis=1	!
2dd	bis
=8	=8
!LO:N:vis=0	!
1cc	auf
!LO:N:vis=1	!
2cc	den
=9	=9
!LO:N:vis=0	!
1a}	Grund,
!LO:N:vis=1	!
{2cc	es
=10	=10
!LO:N:vis=1	!
2b-	ſchmecket
!LO:N:vis=1	!
2a	.
!LO:N:vis=1	!
2g	im
=11	=11
!LO:N:vis=0	!
1a	wol,
!LO:N:vis=1	!
2cc	es
=12	=12
!LO:N:vis=1	!
2b-	ſchmecket
!LO:N:vis=1	!
2a	.
!LO:N:vis=1	!
2g	im
=13	=13
1.f/ll}	wol.
==	==
!!!GTL: Trink. und Zechlieder, incl. Fastnacht- u. Martinslieder
!!!AGN: Romanze, Ballade, Lied, Trinklied
!! Franck, Fasc. quodl. No. 1
!!!ONB: ESAC (Essen Associative Code) Database: ALTDEU
!!!AMT: simple triple
!!!AIN: vox
!!!EED: Helmut Schaffrath
!!!EEV: 1.0
!!!RDF**kern: l = terminal long
!!!AMD: Ionian
!!!URL-scan: https://rosdok.uni-rostock.de/mcrviewer/recordIdentifier/rosdok_ppn738218359/iview2/phys_0474.iview2?x=-1625.8563452843127&y=956.6172776087187&scale=0.28036994991815867&rotation=0&layout=singlePageLayout&logicalDiv=log_0012
!!!ENC: Anna Maria Matuszewska
!!!EEV: 2024/13/03
*-	*-
